src/assets/logos/weeve.svg

<svg height="49" viewBox="0 0 261 49" width="261" xmlns="http://www.w3.org/2000/svg"><path d="m16.3719586 48.8714214-16.3719586-46.75212499h13.1503846l9.1427219 30.07374999 11.9334142-30.07374999h8.6222663l11.8438402 30.07374999 9.3156923-30.07374999h11.9318698l-16.4599881 46.75212499h-8.7936923l-12.8028994-31.9755625-12.7133255 31.9755625h-8.7998698zm104.3305034-20.6535h-32.394888c.9575148 7.086625 5.2261775 11.4078125 11.496355 11.4078125 4.875604 0 8.795237-2.7654375 10.362781-7.4326875l10.015296 3.4560313c-2.526604 8.1248125-10.27784 14.3462812-20.8166806 14.3462812-14.456929 0-23.6011952-10.0250937-23.6011952-24.7159062.0030887-13.9144688 9.3203254-24.28409379 23.1687692-24.28409379 14.7179286 0 22.1201366 11.14749999 22.1201366 23.33318749 0 1.3827188-.08803 2.7654375-.34903 3.889375zm-21.8591366-17.1974687c-5.4856331 0-9.3172366 3.889375-10.4492662 9.9378125h20.4645618c-.261-5.445125-4.180633-9.9378125-10.0152956-9.9378125zm70.3665266 17.1959375h-32.396432c.957515 7.0881562 5.226178 11.4078125 11.496355 11.4078125 4.877148 0 8.795237-2.7639063 10.362781-7.4311563l10.015296 3.4560313c-2.525059 8.1248125-10.276296 14.3462812-20.813592 14.3462812-14.455384 0-23.601195-10.0250937-23.601195-24.7159062 0-13.9144688 9.318781-24.28409379 23.165681-24.28409379 14.717929 0 22.120136 11.14749999 22.120136 23.33318749 0 1.3827188-.08803 2.7654375-.34903 3.889375zm-21.859136-17.1944063c-5.485633 0-9.317237 3.889375-10.449266 9.9378125h20.464562c-.261-5.445125-4.179089-9.9378125-10.015296-9.9378125zm40.844183 38.2827813-20.030591-47.18546879h13.760414l11.233811 29.98646879 11.32184-29.98646879h12.628384l-20.030591 47.18393749h-8.883267zm72.456071-21.0853125h-32.396432c.957515 7.086625 5.226178 11.4078125 11.496355 11.4078125 4.877148 0 8.795237-2.7654375 10.362782-7.4326875l10.015295 3.4560312c-2.525059 8.1232813-10.276295 14.34475-20.812047 14.34475-14.455385 0-23.601195-10.0250937-23.601195-24.7159062 0-13.9144688 9.318781-24.28409379 23.16568-24.28409379 14.716385 0 22.118592 11.14749999 22.118592 23.33318749 0 1.3827188-.086485 2.7654375-.34903 3.889375zm-21.857591-17.199c-5.487178 0-9.318781 3.889375-10.450811 9.9378125h20.464562c-.261-5.445125-4.179089-9.9378125-10.013751-9.9378125z" transform="translate(0 -.995)"/></svg>

<svg xmlns="http://www.w3.org/2000/svg" width="261" height="49" viewBox="0 0 261 49">
  <path d="M16.3719586,48.8714214 L0,2.11929641 L13.1503846,2.11929641 L22.2931065,32.1930464 L34.2265207,2.11929641 L42.848787,2.11929641 L54.6926272,32.1930464 L64.0083195,2.11929641 L75.9401893,2.11929641 L59.4802012,48.8714214 L50.6865089,48.8714214 L37.8836095,16.8958589 L25.170284,48.8714214 L16.3704142,48.8714214 L16.3719586,48.8714214 Z M120.702462,28.2179214 L88.307574,28.2179214 C89.2650888,35.3045464 93.5337515,39.6257339 99.803929,39.6257339 C104.679533,39.6257339 108.599166,36.8602964 110.16671,32.1930464 L120.182006,35.6490777 C117.655402,43.7738902 109.904166,49.9953589 99.3653254,49.9953589 C84.9083964,49.9953589 75.7641302,39.9702652 75.7641302,25.2794527 C75.7672189,11.3649839 85.0844556,0.995358911 98.9328994,0.995358911 C113.650828,0.995358911 121.053036,12.1428589 121.053036,24.3285464 C121.053036,25.7112652 120.965006,27.0939839 120.704006,28.2179214 L120.702462,28.2179214 Z M98.8433254,11.0204527 C93.3576923,11.0204527 89.5260888,14.9098277 88.3940592,20.9582652 L108.858621,20.9582652 C108.597621,15.5131402 104.677988,11.0204527 98.8433254,11.0204527 Z M169.209852,28.2163902 L136.81342,28.2163902 C137.770935,35.3045464 142.039598,39.6242027 148.309775,39.6242027 C153.186923,39.6242027 157.105012,36.8602964 158.672556,32.1930464 L168.687852,35.6490777 C166.162793,43.7738902 158.411556,49.9953589 147.87426,49.9953589 C133.418876,49.9953589 124.273065,39.9702652 124.273065,25.2794527 C124.273065,11.3649839 133.591846,0.995358911 147.438746,0.995358911 C162.156675,0.995358911 169.558882,12.1428589 169.558882,24.3285464 C169.558882,25.7112652 169.470852,27.0939839 169.209852,28.2179214 L169.209852,28.2163902 Z M147.350716,11.0219839 C141.865083,11.0219839 138.033479,14.9113589 136.90145,20.9597964 L157.366012,20.9597964 C157.105012,15.5146714 153.186923,11.0219839 147.350716,11.0219839 Z M188.194899,49.3047652 L168.164308,2.11929641 L181.924722,2.11929641 L193.158533,32.1057652 L204.480373,2.11929641 L217.108757,2.11929641 L197.078166,49.3032339 L188.194899,49.3032339 L188.194899,49.3047652 Z M260.65097,28.2194527 L228.254538,28.2194527 C229.212053,35.3060777 233.480716,39.6272652 239.750893,39.6272652 C244.628041,39.6272652 248.54613,36.8618277 250.113675,32.1945777 L260.12897,35.6506089 C257.603911,43.7738902 249.852675,49.9953589 239.316923,49.9953589 C224.861538,49.9953589 215.715728,39.9702652 215.715728,25.2794527 C215.715728,11.3649839 225.034509,0.995358911 238.881408,0.995358911 C253.597793,0.995358911 261,12.1428589 261,24.3285464 C261,25.7112652 260.913515,27.0939839 260.65097,28.2179214 L260.65097,28.2194527 Z M238.793379,11.0204527 C233.306201,11.0204527 229.474598,14.9098277 228.342568,20.9582652 L248.80713,20.9582652 C248.54613,15.5131402 244.628041,11.0204527 238.793379,11.0204527 Z" transform="translate(0 -.995)"/>
</svg>
